icons/currency/icon_currency-eur-usd_m_white.svg

<?xml version="1.0" encoding="UTF-8"?>
<svg width="24px" height="24px" viewBox="0 0 24 24" version="1.1" xmlns="http://www.w3.org/2000/svg" xmlns:xlink="http://www.w3.org/1999/xlink">
    <!-- Generator: Sketch 49 (51002) - http://www.bohemiancoding.com/sketch -->
    <title>icon_currency-eur-usd_m_white</title>
    <desc>Created with Sketch.</desc>
    <defs></defs>
    <g id="set" stroke="none" stroke-width="1" fill="none" fill-rule="evenodd">
        <g id="mobile" transform="translate(-516.000000, -1126.000000)">
            <g id="Headings" transform="translate(64.000000, 77.000000)"></g>
            <g id="icon_tool_currency__m__white" transform="translate(516.000000, 1126.000000)">
                <g id="art">
                    <rect id="Rectangle-path" x="0" y="0" width="24" height="24"></rect>
                    <polygon id="Shape" fill="#FFFFFF" opacity="0.4" points="9.613 6.606 5.5 1.58 1.387 6.606 0.613 5.974 5.5 0 10.387 5.974"></polygon>
                    <polygon id="Shape" fill="#FFFFFF" opacity="0.4" points="18.5 23.9060488 13.613 17.9320488 14.387 17.3000488 18.5 22.3260488 22.613 17.3000488 23.387 17.9320488"></polygon>
                    <path d="M3.04950519,18 C3.01664489,17.6820399 3,17.3487247 3,17 C3,16.6512753 3.01664489,16.3179601 3.04950519,16 L9,16 L9,15 L3.21776878,15 C3.86225011,12.318095 5.91019959,11 9,11 C9.59370689,11 10.1672732,11.086232 10.7088575,11.2468548 L10.8743711,10.2537731 C10.2778075,10.088383 9.64922524,10 9,10 C5.69804756,10 2.93007208,11.4589803 2.19267386,15 L0,15 L0,16 L2.0446666,16 C2.01515819,16.3190475 2,16.6522688 2,17 C2,17.3477312 2.01515819,17.6809525 2.0446666,18 L0,18 L0,19 L2.19267386,19 C2.93007208,22.5410197 5.69804756,24 9,24 C9.64059251,24 10.2610874,23.9139519 10.8505567,23.7527836 L10.6538352,22.769176 C10.1284796,22.9194984 9.57364086,23 9,23 C5.91019959,23 3.86225011,21.681905 3.21776878,19 L9,19 L9,18 L3.04950519,18 Z" id="Combined-Shape" fill="#FFFFFF" fill-rule="nonzero"></path>
                    <path d="M19.468,7.07 L19,6.949 L19,1.928 C20.551,2.082 21.645,2.987 21.794,4.299 L22.793,4.299 C22.675,2.503 21.119,1.194 19,1.032 L19,0 L18,0 L18,1.042 C15.854,1.25 14.343,2.604 14.343,4.436 C14.343,6.076 15.331,7.031 17.647,7.628 L18,7.72 L18,13.063 C16.331,12.869 15.162,11.903 14.998,10.523 L14,10.523 C14.169,12.459 15.745,13.782 18,13.963 L18,15 L19,15 L19,13.968 C21.44,13.807 23,12.447 23,10.386 C23,8.67 21.977,7.71 19.468,7.07 L19.468,7.07 Z M18,6.686 C16.171,6.196 15.382,5.507 15.382,4.392 C15.382,3.092 16.457,2.119 18,1.935 L18,6.686 L18,6.686 Z M19,13.078 L19,7.98 L19.214,8.036 C21.152,8.531 21.979,9.274 21.979,10.52 C21.979,11.917 20.743,12.946 19,13.078 L19,13.078 Z" id="Shape" fill="#FFFFFF"></path>
                </g>
            </g>
        </g>
    </g>
</svg>

<svg width="24" height="24" viewBox="0 0 24 24" xmlns="http://www.w3.org/2000/svg"><g fill="none" fill-rule="evenodd"><path d="M0 0h24v24H0z"/><path fill="#FFF" opacity=".4" d="M9.613 6.606L5.5 1.58 1.387 6.606l-.774-.632L5.5 0l4.887 5.974zM18.5 23.906l-4.887-5.974.774-.632 4.113 5.026 4.113-5.026.774.632z"/><path d="M3.05 18A9.732 9.732 0 0 1 3 17c0-.349.017-.682.05-1H9v-1H3.218C3.862 12.318 5.91 11 9 11c.594 0 1.167.086 1.709.247l.165-.993A7.007 7.007 0 0 0 9 10c-3.302 0-6.07 1.459-6.807 5H0v1h2.045c-.03.319-.045.652-.045 1s.015.681.045 1H0v1h2.193C2.93 22.541 5.698 24 9 24c.64 0 1.261-.086 1.85-.247l-.196-.984C10.128 22.92 9.574 23 9 23c-3.09 0-5.138-1.318-5.782-4H9v-1H3.05z" fill="#FFF" fill-rule="nonzero"/><path d="M19.468 7.07L19 6.949V1.928c1.551.154 2.645 1.059 2.794 2.371h.999C22.675 2.503 21.119 1.194 19 1.032V0h-1v1.042c-2.146.208-3.657 1.562-3.657 3.394 0 1.64.988 2.595 3.304 3.192L18 7.72v5.343c-1.669-.194-2.838-1.16-3.002-2.54H14c.169 1.936 1.745 3.259 4 3.44V15h1v-1.032c2.44-.161 4-1.521 4-3.582 0-1.716-1.023-2.676-3.532-3.316zM18 6.686c-1.829-.49-2.618-1.179-2.618-2.294 0-1.3 1.075-2.273 2.618-2.457v4.751zm1 6.392V7.98l.214.056c1.938.495 2.765 1.238 2.765 2.484 0 1.397-1.236 2.426-2.979 2.558z" fill="#FFF"/></g></svg>
